src/24/actions/gnumeric-link-external.svg

<svg xmlns="http://www.w3.org/2000/svg" viewBox="0 0 24 24"><path d="M7 6v2H4v1h3v2h4v-1H8V7h3V6H7zm6 0v1h3v3h-3v1h4V9h3V8h-3V6h-4zm-2 2v1h2V8h-2z" fill="currentColor" color="#5d656b"/><path d="M17 15v2h-2v1h2v2h1v-2h2v-1h-2v-2h-1z" fill="#1d99f3"/></svg>

<svg xmlns="http://www.w3.org/2000/svg" viewBox="0 0 24 24">
  <defs id="defs3051">
    <style type="text/css" id="current-color-scheme">
      .ColorScheme-Text {
        color:#5d656b;
      }
      </style>
  </defs>
 <path style="fill:currentColor;fill-opacity:1;stroke:none" 
     d="M 7 6 L 7 8 L 4 8 L 4 9 L 7 9 L 7 11 L 11 11 L 11 10 L 8 10 L 8 7 L 11 7 L 11 6 L 7 6 z M 13 6 L 13 7 L 16 7 L 16 10 L 13 10 L 13 11 L 17 11 L 17 9 L 20 9 L 20 8 L 17 8 L 17 6 L 13 6 z M 11 8 L 11 9 L 13 9 L 13 8 L 11 8 z "
     class="ColorScheme-Text"
     />
 <path 
     style="fill:#1d99f3" 
     d="M 17 15 L 17 17 L 15 17 L 15 18 L 17 18 L 17 20 L 18 20 L 18 18 L 20 18 L 20 17 L 18 17 L 18 15 L 17 15 z "
     />
</svg>
